X:254
T:Domhnall na Greine
T:Daniel of the Sun
R:jig
Z:id:hn-jig-254
M:6/8
K:D
fdd edd|fef dBA|Bee ede|fee ~e3|
fdd edd|fef dBA|Bdd d2e|fdd d2e:|
|:fga efg|fef dBA|Bee ede|fee ede|
fga efg|fef dBA|Bdd d2e|fdd d2e:|

